build/img/icons/star-3.svg

<svg width="243" height="307" viewBox="0 0 243 307" fill="none" xmlns="http://www.w3.org/2000/svg">
<path d="M196.23 50.2299C196.23 50.2299 210.217 28.0224 185.756 19.3054C185.756 19.3054 213.012 19.6 218.601 2.75505C218.601 2.75505 212.64 22.05 230.755 32.6071C230.755 32.6071 211.896 26.9499 196.23 50.2299Z" fill="white"/>
<path d="M170.167 278.721C170.167 278.721 192.923 242.591 153.127 228.409C153.127 228.409 197.47 228.888 206.564 201.482C206.564 201.482 196.865 232.874 226.337 250.05C226.337 250.05 195.655 240.846 170.167 278.721Z" fill="white"/>
<path d="M24.2575 304.656C24.2575 304.656 30.0948 283.991 7.75316 281.021C7.75316 281.021 30.2444 276.585 30.5437 261.772C30.5437 261.772 30.5638 278.664 48.1557 284.237C48.1557 284.237 31.2024 282.821 24.2575 304.656Z" fill="white"/>
</svg>

<svg width="243" height="307" fill="none" xmlns="http://www.w3.org/2000/svg"><path d="M196.23 50.23s13.987-22.208-10.474-30.925c0 0 27.256.295 32.845-16.55 0 0-5.961 19.295 12.154 29.852 0 0-18.859-5.657-34.525 17.623zm-26.063 228.491s22.756-36.13-17.04-50.312c0 0 44.343.479 53.437-26.927 0 0-9.699 31.392 19.773 48.568 0 0-30.682-9.204-56.17 28.671zM24.258 304.656s5.837-20.665-16.505-23.635c0 0 22.491-4.436 22.79-19.249 0 0 .02 16.892 17.613 22.465 0 0-16.954-1.416-23.898 20.419z" fill="#fff"/></svg>
